P2
32 32
255
243 251 161 149 150 71 92 82 79 89 82 73 80 133 193 212 207 207 221 193 113 96 112 104 101 101 101 103 94 97 138 181
239 251 159 148 152 70 81 78 84 89 87 73 96 177 201 165 129 136 181 217 171 97 119 118 103 103 102 104 95 98 135 168
246 251 157 149 152 71 82 83 86 88 86 84 126 174 170 97 59 77 140 210 205 100 113 130 121 109 106 107 99 107 134 80
176 166 122 155 149 69 85 88 90 108 91 84 132 153 138 92 77 91 133 164 158 82 99 134 129 128 117 107 101 92 143 119
54 58 102 161 141 63 87 91 89 94 92 120 170 196 199 206 200 206 211 210 176 114 90 111 133 132 136 129 124 75 104 144
142 145 148 144 114 68 92 91 80 107 157 205 221 223 221 210 205 213 219 233 237 216 155 86 100 141 153 151 149 114 98 94
98 98 98 86 89 91 97 87 137 192 207 208 204 177 157 159 161 177 171 191 210 224 230 194 117 90 147 155 146 166 192 182
102 97 88 76 84 95 91 140 205 211 192 156 125 115 127 147 148 174 154 104 142 179 216 236 205 112 100 139 143 168 198 203
156 153 129 99 85 75 139 199 209 169 119 124 153 181 191 157 161 159 96 58 98 133 151 200 234 212 113 104 143 173 198 200
155 151 131 99 64 113 186 209 171 121 161 198 210 210 206 160 157 124 57 58 115 150 125 143 208 227 191 92 122 168 199 200
149 141 122 90 76 171 194 182 146 174 209 207 208 211 200 157 145 80 79 80 181 201 157 124 152 208 217 144 101 171 182 189
130 116 94 75 110 186 190 168 180 199 205 209 210 214 200 154 103 74 72 122 204 207 193 144 126 180 212 190 107 140 160 171
115 95 82 69 148 191 174 175 196 205 209 210 209 214 204 147 66 80 99 188 208 204 209 186 142 146 195 204 125 104 142 136
92 83 82 80 172 188 164 188 211 209 210 210 209 218 207 100 64 69 139 216 210 207 206 220 175 134 176 204 149 87 123 108
77 86 80 108 176 177 168 204 216 211 210 211 210 223 184 49 69 78 204 216 206 209 209 221 197 149 169 198 165 85 121 124
80 86 76 116 170 180 165 154 180 208 211 210 210 220 131 54 64 138 212 214 207 205 204 213 179 140 165 184 167 91 123 135
71 78 67 114 176 185 116 54 104 204 212 210 210 215 125 57 62 190 215 212 207 205 210 180 83 73 153 190 169 86 133 136
81 86 65 108 171 178 106 57 123 207 211 210 210 212 195 158 170 213 211 209 209 203 212 158 59 68 155 186 163 82 135 139
77 80 72 94 157 176 155 164 198 208 210 210 210 207 209 214 212 211 207 207 210 203 205 198 158 148 167 164 144 76 130 139
90 78 69 82 148 168 174 203 211 208 209 210 210 209 206 210 205 206 205 207 209 208 204 211 205 170 162 160 131 62 134 147
136 124 94 70 127 165 173 197 212 212 210 210 212 212 210 210 208 205 207 206 206 209 207 207 211 174 160 156 105 82 150 154
145 144 139 82 97 142 159 189 212 213 209 211 212 212 209 207 202 208 208 204 206 208 205 209 202 163 155 141 84 110 156 151
139 143 163 107 77 117 143 169 201 213 213 212 209 207 207 211 208 208 208 208 208 209 208 203 177 150 143 106 71 118 148 145
130 132 142 113 72 96 131 145 166 199 211 210 207 204 206 204 198 211 212 213 209 215 208 177 143 138 116 75 68 123 143 133
146 144 141 139 95 78 108 122 133 164 195 209 211 212 204 124 102 174 221 213 210 203 174 142 130 116 79 64 83 132 149 109
142 139 143 148 121 79 80 97 123 129 147 174 197 216 184 70 52 149 220 211 188 158 136 132 109 82 65 71 81 94 98 82
136 138 147 151 137 98 70 73 97 119 123 123 139 166 179 132 128 167 179 151 129 123 123 106 81 70 70 76 78 72 72 79
129 139 146 149 153 131 97 69 76 84 100 116 117 116 121 131 135 127 119 117 117 103 78 64 64 70 75 75 75 74 74 77
121 134 142 150 148 153 139 97 63 60 68 81 92 99 104 103 104 108 95 83 79 74 65 61 66 76 79 74 75 75 73 77
122 135 143 148 145 148 153 142 106 77 65 63 66 72 71 61 60 67 68 66 61 62 66 72 69 81 81 74 75 76 78 78
110 134 146 148 147 147 148 148 150 134 105 77 61 59 59 60 60 59 62 59 62 71 69 62 67 82 82 75 76 78 76 78
128 136 147 149 148 150 151 148 148 151 148 135 114 97 100 92 93 97 96 97 120 116 79 62 66 79 79 77 77 78 75 75
