P2
32 32
255
176 175 170 163 137 138 180 196 228 229 238 187 128 172 208 204 204 211 218 178 109 168 186 135 136 159 160 156 157 158 160 159
132 141 139 141 110 119 175 192 221 230 225 122 117 188 192 143 112 141 190 212 135 114 139 112 126 145 145 142 142 142 142 143
111 133 138 126 89 113 171 192 224 225 199 116 142 173 151 76 56 91 174 224 186 84 85 104 139 149 145 148 147 147 148 149
112 142 157 105 80 88 108 126 196 182 139 111 130 144 129 83 79 111 151 172 154 79 77 116 146 156 157 157 157 157 158 158
116 150 158 91 74 74 80 90 120 101 102 141 180 205 210 203 197 207 214 204 163 107 74 109 143 145 148 151 152 152 153 155
123 156 151 90 75 73 79 78 83 131 189 219 222 221 212 203 202 213 215 228 228 200 131 83 117 141 143 146 152 154 154 154
124 150 127 75 68 69 78 103 164 202 227 215 183 145 118 85 108 143 152 171 204 223 220 174 100 107 147 153 152 155 155 154
122 140 104 73 72 69 99 172 204 208 176 134 103 114 104 55 82 108 103 108 138 184 212 223 183 111 112 151 154 153 151 152
112 97 80 77 71 91 165 210 209 139 108 145 174 197 144 55 77 108 107 110 114 116 153 209 234 190 98 121 153 154 150 150
82 60 57 56 76 154 193 196 140 131 184 207 205 217 152 54 75 108 108 109 113 113 110 162 214 225 161 95 142 155 151 150
56 44 39 44 106 190 194 160 148 196 206 204 207 215 150 54 81 114 108 107 112 110 108 121 181 214 218 126 114 156 154 151
43 42 34 69 155 199 190 159 190 198 204 212 209 205 145 55 80 114 113 106 106 104 96 103 127 193 221 173 96 147 157 154
39 40 45 92 177 190 171 179 204 202 209 214 211 210 149 55 74 98 98 93 90 76 58 62 115 157 201 190 108 127 157 155
37 43 57 109 190 184 169 196 210 204 207 212 206 218 153 56 63 69 61 59 79 78 69 103 131 146 198 194 113 113 153 155
38 43 62 133 186 186 177 211 220 207 209 209 210 192 97 37 62 81 72 62 84 93 131 203 174 144 189 191 127 105 154 156
38 43 62 141 182 187 149 152 201 219 218 214 214 164 56 67 66 75 79 123 171 202 214 217 157 138 185 182 141 91 141 145
38 43 63 144 178 172 86 59 143 218 216 211 208 186 83 68 130 194 206 214 212 207 208 140 51 100 182 179 142 76 108 116
37 44 64 136 176 171 88 75 164 211 209 209 199 203 190 191 209 212 209 206 209 210 207 117 49 97 176 172 138 69 81 91
37 41 63 111 171 164 152 174 207 208 209 208 206 204 210 211 205 207 209 208 207 210 210 191 152 152 164 157 118 76 85 90
38 41 53 99 164 171 178 198 206 208 208 208 208 208 208 208 208 208 208 208 208 208 207 210 199 166 163 154 97 70 86 83
39 41 48 84 140 156 168 198 206 208 208 208 208 208 208 208 208 208 208 208 208 208 207 209 190 161 163 148 81 70 84 79
39 42 46 69 114 146 168 206 209 208 208 209 209 208 208 208 208 208 208 208 208 208 207 209 187 154 148 124 71 74 81 80
38 40 43 61 95 131 147 182 207 206 208 209 208 206 208 211 210 208 209 209 208 208 208 201 159 140 136 91 70 80 80 81
38 39 42 49 74 115 133 150 183 199 207 207 207 205 205 205 208 213 210 212 211 210 203 169 140 132 99 70 76 83 82 81
35 38 45 54 70 89 114 129 133 170 199 207 207 211 166 98 115 205 215 219 215 194 171 144 127 98 76 74 78 82 83 81
41 52 68 80 75 70 89 108 121 130 152 179 199 211 134 46 73 195 221 200 172 142 128 125 95 73 74 79 81 82 81 81
76 78 85 93 80 69 67 81 111 126 127 131 150 168 163 138 143 176 161 141 129 122 114 87 73 70 74 81 84 82 80 80
84 84 87 88 89 82 66 62 76 92 108 114 113 117 122 128 128 121 118 124 118 98 79 66 71 72 77 84 86 82 80 81
83 86 88 88 91 87 74 69 67 66 71 83 93 100 101 101 98 93 88 82 75 72 70 73 75 78 83 86 87 83 80 80
86 88 89 89 90 86 79 79 75 68 62 62 68 72 68 65 65 65 66 65 64 64 68 71 80 86 88 88 87 83 80 80
87 89 90 90 91 87 81 83 89 84 73 65 60 59 61 63 64 65 64 68 72 75 77 79 86 88 88 88 87 83 80 80
88 90 90 89 90 89 85 86 88 89 88 83 75 74 75 72 67 60 57 63 77 89 88 87 87 88 88 88 87 84 81 80
